assets/features/global-acquiring/icon4_animation8.svg

<svg width="104" height="104" viewBox="0 0 104 104" fill="none" xmlns="http://www.w3.org/2000/svg">
<g filter="url(#filter0_d_1540_4665)">
<rect x="12" y="4" width="80" height="80" rx="20" fill="white"/>
<g opacity="0.6" clip-path="url(#clip0_1540_4665)">
<path d="M33.8805 44.2447C33.8805 42.2118 34.2231 40.2636 34.8292 38.4339L24.1864 30.3774C22.0449 34.6867 20.9339 39.4346 20.9412 44.2466C20.9412 49.2292 22.1083 53.9313 24.1788 58.1045L34.8198 50.0349C34.1986 48.1682 33.8815 46.2139 33.8805 44.2466" fill="#FBBC05"/>
<path d="M52.5778 25.7487C56.8189 25.7399 60.9328 27.1961 64.2239 29.871L73.4268 20.768C67.8192 15.9303 60.6305 12.9412 52.5778 12.9412C40.0752 12.9412 29.3307 20.0263 24.1863 30.3774L34.8366 38.4339C37.2893 31.055 44.2804 25.7468 52.5816 25.7468" fill="#EA4335"/>
<path d="M52.7135 62.3322C44.369 62.3322 37.3422 57.0598 34.8763 49.7242L24.177 57.7318C29.3478 68.0188 40.1469 75.0588 52.7154 75.0588C60.4669 75.0588 67.8683 72.3633 73.4269 67.3054L63.2697 59.6122C60.4067 61.3817 56.7963 62.3341 52.7116 62.3341" fill="#34A853"/>
<path d="M83.0589 43.951C83.0589 42.1139 82.769 40.1317 82.3361 38.2946H52.7097V50.3134H69.762C68.9111 54.4131 66.5921 57.5623 63.2697 59.6122L73.425 67.3054C79.2622 61.999 83.0589 54.0913 83.0589 43.951Z" fill="#4285F4"/>
</g>
</g>
<defs>
<filter id="filter0_d_1540_4665" x="0" y="0" width="104" height="104" filterUnits="userSpaceOnUse" color-interpolation-filters="sRGB">
<feFlood flood-opacity="0" result="BackgroundImageFix"/>
<feColorMatrix in="SourceAlpha" type="matrix" values="0 0 0 0 0 0 0 0 0 0 0 0 0 0 0 0 0 0 127 0" result="hardAlpha"/>
<feOffset dy="8"/>
<feGaussianBlur stdDeviation="6"/>
<feComposite in2="hardAlpha" operator="out"/>
<feColorMatrix type="matrix" values="0 0 0 0 0.586538 0 0 0 0 0.586538 0 0 0 0 0.586538 0 0 0 0.25 0"/>
<feBlend mode="normal" in2="BackgroundImageFix" result="effect1_dropShadow_1540_4665"/>
<feBlend mode="normal" in="SourceGraphic" in2="effect1_dropShadow_1540_4665" result="shape"/>
</filter>
<clipPath id="clip0_1540_4665">
<rect width="64" height="64" fill="white" transform="translate(20 12)"/>
</clipPath>
</defs>
</svg>

<svg xmlns="http://www.w3.org/2000/svg" width="104" height="104" fill="none" viewBox="0 0 104 104"><g filter="url(#a)"><rect width="80" height="80" x="12" y="4" fill="#fff" rx="20"/><g clip-path="url(#b)" opacity=".6"><path fill="#fbbc05" d="M33.88 44.245c0-2.033.343-3.981.95-5.811l-10.644-8.057a31.06 31.06 0 0 0-3.245 13.87c0 4.982 1.167 9.684 3.238 13.858l10.64-8.07a18.4 18.4 0 0 1-.939-5.788"/><path fill="#ea4335" d="M52.578 25.749a18.4 18.4 0 0 1 11.646 4.122l9.203-9.103c-5.608-4.838-12.797-7.827-20.85-7.827-12.502 0-23.246 7.085-28.39 17.436l10.65 8.057c2.452-7.379 9.443-12.687 17.745-12.687"/><path fill="#34a853" d="M52.714 62.332c-8.345 0-15.372-5.272-17.838-12.608l-10.699 8.008c5.17 10.287 15.97 17.327 28.538 17.327 7.752 0 15.153-2.696 20.712-7.754L63.27 59.612c-2.863 1.77-6.474 2.722-10.558 2.722"/><path fill="#4285f4" d="M83.059 43.951c0-1.837-.29-3.82-.723-5.656H52.71v12.018h17.052c-.85 4.1-3.17 7.25-6.492 9.3l10.155 7.692c5.837-5.306 9.634-13.214 9.634-23.354"/></g></g><defs><clipPath id="b"><path fill="#fff" d="M20 12h64v64H20z"/></clipPath><filter id="a" width="104" height="104" x="0" y="0" color-interpolation-filters="sRGB" filterUnits="userSpaceOnUse"><feFlood flood-opacity="0" result="BackgroundImageFix"/><feColorMatrix in="SourceAlpha" result="hardAlpha" values="0 0 0 0 0 0 0 0 0 0 0 0 0 0 0 0 0 0 127 0"/><feOffset dy="8"/><feGaussianBlur stdDeviation="6"/><feComposite in2="hardAlpha" operator="out"/><feColorMatrix values="0 0 0 0 0.586538 0 0 0 0 0.586538 0 0 0 0 0.586538 0 0 0 0.25 0"/><feBlend in2="BackgroundImageFix" result="effect1_dropShadow_1540_4665"/><feBlend in="SourceGraphic" in2="effect1_dropShadow_1540_4665" result="shape"/></filter></defs></svg>
